X: 014
M: 2/4
L: 1/16
K: F
cBcd c2A2 | fefg f2c2 | dfed cBAG | A2F2F2c2 |\
fefg a2gf | efga g2f2 | e2dc G2=B2 | c2c2c2 :|
|: g2 |\
edef gedc | fefg a2c2 | BABc BdcA | GFGA G2F2 |\
cBcd c2A2 | fefg f2c2 | dfed cBAG | A2F2F2 :|

